X:1
T:Title
%%score 1 2
L:1/8
M:4/4
K:A
V:1 treble nm="Grand Piano, Staff"
V:2 bass nm="Choir Pad, Jesus Is Coming Again"
V:1
 [EA]2 [EA]>[EA] [EA] [EA]2 [EA] | [GB]2 [GB]>[GB] [GB]4 | [EA]2 [EA]>[EA] [Ec]2 [EB][^DA] | %3
w: By~Jessie~E.~Strout,~1872 * * * * *|||
 [EB]6 z2 | [EA]2 [EA]>[EA] [EA] [EA]2 [EA] | [GB]2 [=Gc]>[Gc] [Fd]4 | %6
w: |||
 F2 [Fd]>[FB] [EA]2 [DG]>[DG] | [CA]6 z2 | [Ec]2 [Ec]>[Ec] [Ec]4 | [Fd]2 [Fd]>[Fd] [GB]4 | %10
w: ||||
 [Ec]2 [Fd]>[FB] [EA]2 [DG]>[DG] | [CA]8 |] %12
w: ||
V:2
 [A,C]2 [A,C]>[A,C] [A,C] [A,C]2 [A,C] | [E,E]2 [E,E]>[E,E] [E,E]4 | %2
 [A,C]2 [A,C]>[A,C] A,2 [G,B,][F,B,] | [E,G,]6 z2 | [A,C]2 [A,C]>[A,C] [A,C] [A,C]2 [A,C] | %5
 [E,E]2 [A,E]>[A,E] [D,D]4 | [D,A,]2 [D,A,]>[D,D] [E,C]2 [E,B,]>[E,B,] | [A,,A,]6 z2 | %8
 A,2 A,>A, A,4 | [D,A,]2 [D,A,]>[D,A,] [E,E]4 | A,2 [D,A,]>[D,D] [E,C]2 [E,B,]>[E,B,] | [A,,A,]8 |] %12

